assets/svgs/call-to-action-find.svg

<svg width="81" height="80" viewBox="0 0 81 80" fill="none" xmlns="http://www.w3.org/2000/svg">
<mask id="path-1-inside-1_2216_32319" fill="white">
<path d="M40.5 0L68.7843 11.7157L80.5 40L68.7843 68.2843L40.5 80L12.2158 68.2843L0.5 40L12.2158 11.7157L40.5 0Z"/>
</mask>
<path d="M40.5 0L68.7843 11.7157L80.5 40L68.7843 68.2843L40.5 80L12.2158 68.2843L0.5 40L12.2158 11.7157L40.5 0Z" stroke="#0B6AB7" stroke-width="3" mask="url(#path-1-inside-1_2216_32319)"/>
<path d="M40.5001 6L64.5418 15.9584L74.5002 40.0001M40.5001 74.0002L16.4584 64.0418L6.5 40.0001" stroke="#00E0E0" stroke-width="2"/>
<path d="M46.5815 44.8775L46.0512 44.3471L44.9905 45.4077L45.5208 45.9381L46.5815 44.8775ZM53.0684 53.4868L53.5987 54.0171L54.6594 52.9566L54.1291 52.4262L53.0684 53.4868ZM42.8308 48.4704C48.8651 45.9058 51.678 38.9351 49.1134 32.9007L47.7329 33.4874C49.9734 38.7593 47.516 44.8494 42.2441 47.0899L42.8308 48.4704ZM49.1134 32.9007C46.5489 26.8664 39.5781 24.0536 33.5438 26.6181L34.1305 27.9986C39.4024 25.7581 45.4924 28.2155 47.7329 33.4874L49.1134 32.9007ZM33.5438 26.6181C27.5095 29.1826 24.6966 36.1534 27.2612 42.1877L28.6417 41.601C26.4011 36.3291 28.8586 30.2391 34.1305 27.9986L33.5438 26.6181ZM27.2612 42.1877C29.8257 48.2221 36.7965 51.0349 42.8308 48.4704L42.2441 47.0899C36.9722 49.3304 30.8822 46.8729 28.6417 41.601L27.2612 42.1877ZM45.5208 45.9381L53.0684 53.4868L54.1291 52.4262L46.5815 44.8775L45.5208 45.9381Z" fill="#0AA5FF"/>
</svg>

<svg viewBox="0 0 81 80" fill="none" xmlns="http://www.w3.org/2000/svg">
  <mask id="a" fill="#fff">
    <path d="m40.5 0 28.284 11.716L80.5 40 68.784 68.284 40.5 80 12.216 68.284.5 40l11.716-28.284L40.5 0Z"/>
  </mask>
  <path d="m40.5 0 28.284 11.716L80.5 40 68.784 68.284 40.5 80 12.216 68.284.5 40l11.716-28.284L40.5 0Z" stroke="#0B6AB7" stroke-width="3" mask="url(#a)"/>
  <path d="m40.5 6 24.042 9.958L74.5 40m-34 34-24.042-9.958L6.5 40" stroke="#00E0E0" stroke-width="2"/>
  <path d="m46.581 44.877-.53-.53-1.06 1.06.53.531 1.06-1.06Zm6.487 8.61.53.53 1.061-1.06-.53-.53-1.06 1.06ZM42.831 48.47c6.034-2.564 8.847-9.535 6.282-15.57l-1.38.587c2.24 5.272-.217 11.362-5.489 13.603l.587 1.38Zm6.282-15.57c-2.564-6.034-9.535-8.846-15.57-6.282l.587 1.38c5.272-2.24 11.362.217 13.603 5.49l1.38-.587Zm-15.57-6.282c-6.034 2.565-8.846 9.535-6.282 15.57l1.38-.587c-2.24-5.272.218-11.362 5.49-13.602l-.587-1.38Zm-6.282 15.57c2.565 6.034 9.536 8.847 15.57 6.282l-.587-1.38c-5.272 2.24-11.362-.217-13.602-5.489l-1.38.587Zm18.26 3.75 7.547 7.549 1.061-1.06-7.547-7.55-1.061 1.061Z" fill="#0AA5FF"/>
</svg>
